symbols/web/border_all/materialsymbolsoutlined/border_all_wght300gradN25fill1_40px.svg

<svg xmlns="http://www.w3.org/2000/svg" height="40" width="40"><path d="M21 6h13v13H21Zm0 28V21h13v13ZM6 19V6h13v13Zm0 15V21h13v13Z"/></svg>

<svg xmlns="http://www.w3.org/2000/svg" height="40" width="40"><path d="M21 6H34V19H21ZM21 34V21H34V34ZM6 19V6H19V19ZM6 34V21H19V34Z"/></svg>
